X:1
T:James Gibb editions
T:Hör an mein Klag - Isaac
%%score [ 1 2 3 ]
L:1/8
Q:1/4=91
M:4/4
K:Bb
V:1 treble nm="Soprano" snm="S"
V:2 treble nm="Alto" snm="A"
V:3 treble-8 nm="Tenor" snm="T"
V:1
"^Heinrich Isaac\n(c.1450-1517)" z2 d2"^Hör an mein Klag" d2 c2 | d4 d2 f2 | (e2 d4) (cB) | %3
w: Hör an mein|Klag, denn ich|hier * vor *|
 (A2 c3 BGA | Bcde f2 FG |[M:4/4] AB c3) B B2- | B2 A2 B4 | z2 B2 B2 B2 | c2 c2 (d3 e) | %9
w: Trau\- * * * *||* * * ern schier|* ver- zag,|mein Herz mir|brennt, o Lieb *|
 f2 (g3 fed | cBAG F2 f2- | f2) =e2 f4 | z2 d2 d2 d2 | (f3 edc) e2- | ed c4 =B2 | c4 z2 d2 | %16
w: mein Schmer\- * * *||* zen wend,|ich trag gross|Pein, * * * könnt|* ich bei dir|sein, hör|
 d2 c2 d4 | z2 d2 d2 c2 | d6 f2 | e2 d4 (cB) | (A2 c3 BGA | Bcde f2 FG | AB c3 B B2- | %23
w: an mein Klag,|er- lö- se|mich, all-|zeit will ich *|lie\- * * * *|||
 B2) A2 !fermata!B4 |] %24
w: * ben dich!|
V:2
 z2 F2 F2 E2 | F6 F2 | G4 F4- | F2 (ED) (C2 E2- | EDB,C DE F2- |[M:4/4] FECD ED)CB, | C4 B,2 F2 | %7
w: Hör an mein|Klag, denn|ich hier|* vor * Trau\- *||* * * * * * ern schier|ver- zag, mein|
 F2 F2 G2 G2 | A4 (B4- | B2 AG) (c3 B | AG F2 A2 B2) | G4 F4- | F4 z2 F2 | F2 F2 G3 F | E2 F2 D4 | %15
w: Herz mir brennt, o|Lieb mein|* * * Schmer\- *||zen wend,|* ich|trag gross Pein, könnt|ich bei dir|
 C4 z2 F2 | F2 E2 F4 | z2 F2 F2 E2 | F6 F2 | G4 F4- | F2 (ED) (C2 E2- | E DB,C DE F2- | %22
w: sein, hör|an mein Klag,|er- lö- se|mich, all-|zeit will|* ich * lie\- *||
 FECD EDCB,) | C4 !fermata!B,4 |] %24
w: |ben dich!|
V:3
 z2 B2 B2 c2 | (B3- ABc) d2 | c2 B4 (AG) | (F2 _A3 GEF | GA B4 AG) |[M:4/4][K:treble-8] F2 A2 G4 | %6
w: Hör an mein|Klag, * * * denn|ich hier vor *|Trau\- * * * *||ern schier ver-|
 F4 z2 B2 | B2 B2 e3 d | (cB) c2 (B3 c | d2 e4 c2 | f3 edc B2) | c4 F4 | z2 (B3 ABc) | d3 c B2 c2 | %14
w: zag, mein|Herz mir brennt, o|Lieb * mein Schmer\- *|||zen wend,|ich * * *|trag gross Pein, könnt|
 c2 F2 G4 | c4 z2 B2 | B2 c2 B4 | z2 B2 B2 c2 | (B3 ABc) d2 | c2 B4 (AG) | (F2 _A3 GEF | GA B4 AG | %22
w: ich bei dir|sein, hör|an mein Klag,|er- lö- se|mich, * * * all-|zeit will ich *|lie\- * * * *||
 F2 A2 G4) | F4 !fermata!B4 |] %24
w: |ben dich!|

